X:1
T:Sonata
T:Domenico SCARLATTI (1685 - 1757) 
T:Sonata
T: K. 247
C:Domenico SCARLATTI (1685 - 1757)
%%score { ( 1 3 ) | ( 2 4 ) }
L:1/8
Q:1/4=45
M:3/8
K:E
V:1 treble nm="Zongora"
V:3 treble 
V:2 bass 
V:4 bass 
V:1
"^Allegro" cge |{d} c>^Bc/d/ | e>dc- | c>^Bc | F/d/e/G/A/f/ | g/c/d/^b/c'/g/ | a/c/d/A/G/c/ | %7
 F/^B/c/A/G/d/ | e/c/G/E/ Pf3/4e/8f/8 | g/d/^B/G/ D/^B,/ | PG,3 | z/ D/ d2- | d/c/B/^A/G/^^F/ | %13
 G/D/ d2- | d/c/B/^A/G/^^F/ | G/^A/B/c/d/^e/ | f/c/^A/F/ f- | f/e/d/c/B/^A/ | B/c<d^e/ | %19
 f/g/ ^a2- | a/b/{^a} g/4f/4^ef/ | z/ b/{^a} g/4f/4^ef/ | z/ g/{f} ^e/4d/4^^cd/ | %23
 z/ g/{f} ^e/4d/4^^cd/ | z/ e/{d} c/4B/4^AB/ | z/ e/{d} c/4B/4^AB/ | z/ c/{B} ^A/4G/4^^FG/ | %27
 z/ c/{B} ^A/4G/4^^F/G/A/ | B/^B/c/d/e/^^f/ | g/d/e/^^F/ PG3/4F/8G/8 |{G} ^A3 | Pc3/4^B/8c/8 d>e | %32
 Pc3/4^B/8c/8 d>e | P^A3/4G/8A/8 B>c | P^A3/4G/8A/8 B>c | d/G/TG/^^F/G/d/ | x d2 |{^^F} G3 | %38
 Pc3/4^B/8c/8 ^a>g | Pc3/4^B/8c/8 ^a>g | P^A3/4G/8A/8 B/^ag/ | P^A3/4G/8A/8 B/^ag/- | %42
 g/^^f/4^e/4 d/f/g/d/ | x d2 | z/ g/4^a/4 b/4a/4g/4^^f/4 g/4^f/4e/4d/4 | %45
 c/4e/4d/4c/4 B/4c/4d/4e/4 d/4c/4B/4^A/4 | B/4c/4d/4e/4 d/4c/4B/4^A/4 G/4F/4E/4D/4 | %47
 C/4E/4D/4C/4 B,/4C/4D/4C/4 B,/4^A,/4G,/4^^F,/4 |{^^F,} G,3 :: z/ G/ d>c- | c/^B/4c/4 d/GF/ | %51
 z/ G/ d>c- | c/B/4^A/4 BB- | B/^A/4B/4 cB- | B/^A/4B/4 cB- ||[K:Ab] B/_B/4=A/4 B/A/ f- | f3 | f3 | %58
 f{B} c2 | z/ f/{e} d/4c/4=Bc/ | z/ f/{e} d/4c/4=Bc/ | z/ d/{c} B/4A/4GA/ | z/ d/{c} B/4A/4GA/ | %63
 z/ B/{A} G/4F/4=EF/ | z/ B/{A} G/4F/4=EF/ | z/ _G/{F} E/4D/4CD/ | z/ _G/{F} E/4D/4CD/- | D/E/FTG | %68
 A/4E/4A/4c/4 e/4A/4c/4e/4 a/4c/4e/4a/4 | c'/4a/4e/4c/4 c'/4a/4e/4c/4 A/4E/4C/4E/4 | PA,3 || %71
[K:E] z/ G/ g2- | g/f/e/d/c/^B/ | c/G/ g2- | g/f/e/d/c/^B/ | c/G/ c'2- | c'/b/a/g/f/^e/ | %77
 f/c/ c'2- | c'/b/a/g/f/^e/ | f/c'/{b} a/4g/4^^fg/ | z/ a/{g} f/4e/4de/ | z/ f/{e} d/4c/4^Bc/ | %82
 z/ d/{c} ^B/4^A/4G/ =A/G/4A/4 | G/e/d/^B/c/g/ |{b} a/g/8f/8e/8d/8 cP^B |{^B} c3 | %86
 PF3/4^E/8F/8 d>c | PF3/4^E/8F/8 d>c | P^B3/4^A/8B/8 g>a | P^B3/4^A/8B/8 g>a | Pd3/4c/8d/8 ^b>c' | %91
 Pd3/4c/8d/8 ^b>c'- | c'/^b/4^a/4 g/b/c'/g/ | x/ x/ g2 | z/ e/4f/4g/4 a/4g/4f/4 e/4d/4c/4B/4 | %95
 A/4c/4B/4A/4 G/4F/4E/4D/4 C/4^B,/4C/4D/4 | E/4F/4G/4A/4 G/4F/4E/4D/4 C/4B,/4A,/4G,/4 | %97
 A,/4B,/4C/4D/4[Q:3/8=26] G,/C/[Q:3/8=22]F,/^B,/ |{^B,} C3 :| %99
V:2
 z3 | CGE | C>B,A, | G,>F,E, | D,C,F, | E,D,C, | F,B,E, | D,C,^B,, | C,>B,,A,, | G,,3 | G,,3 | %11
 B,>B,^A, | G,>CB,/^A,/ | B,>B,^A, | G,>CB,/^A,/ | [G,B,]>^A,B,/G,/ | ^A,>B,C | [B,D]2 [CE] | %18
 [DF]/[CE]/[B,D]/[^A,C]/[G,B,] | [F,^A,]>[E,G,][D,F,]/[C,E,]/ | [B,,D,] z/[K:treble] d/c | d>dc | %22
 B>B^A | B>B^A | G>GF | G>GF | E3/2[K:bass] E/D | E3/2 x/ x/ x/ | G,/F,/E,/D,/C, | B,,C,E, | D,3 | %31
[K:treble] [^^F^A]>[FA][GB] | [^^F^A]>[FA][GB] | [D^^F]>[DF][EG] | [D^^F]>[DF][EG] | %35
[K:bass] D>CB, | CDD, | G,3 |[K:treble] [^^F^A]>[FA][GB] | [^^F^A]>[FA][GB] | [D^^F]>[DF][EG] | %41
 [D^^F]>[DF][EG] |[K:bass] D>CB, | CDD, | G,^A,B, | CDD, | G,,^A,,B,, | C,D,D,, | G,,3 :: %49
 [G,D]>[G,D][^^F,E] | [G,D]>[G,D][A,C] | [G,D]>[G,D][^^F,E] | D>CD/E/ | F>ED/B,/ | C>ED/B,/ || %55
[K:Ab] D>CD/E/ | F>ED/C/ | F>ED/C/ | F !fermata!F,,2 |[K:treble] A>AG | A>AG | F>FE | F>FE | %63
 D3/2[K:bass] D/C | D>DC | B,>B,A, | [_G,B,]>[G,B,][F,A,]/[E,G,]/ | [D,F,]/[C,E,]/[B,,D,][B,,D,] | %68
 [A,,A,]3 | [A,,A,]3 | A,,3 ||[K:E] E>ED | C>FE/D/ | E>ED | C>FE/D/ | E3/2 x/ x/ x/ | %76
[K:treble] A>BA/G/ | A>AG | A>BA/G/ | Ffe | d2 c | F2 E | [DF]2 [CF] | F3 |[K:bass] [F,CD] [CE]D | %85
 [C,C]3 | [^B,D]>[B,D][CE] | [^B,D]>[B,D][CE] | [G,D]>[G,D][F,C] | [G,D]>[G,D][F,C] | %90
 [G,D]>[G,D][A,E] | [G,D]>[G,D][A,E] | G,>F,E, | F,G,G,, | C,D,E, | F,G,G,, | C,D,E, | F,E,D, | %98
 C,3 :| %99
V:3
 x3 | x3 |x/c<GF/ | E/C<DE/ | x3 | x3 | x3 | x3 | x3 | x3 | x3 | x3 | x3 | x3 | x3 | x3 | x3 | x3 | %18
 x3 | x3 | x3 | x3 | x3 | x3 | x3 | x3 | x3 | x3 | x3 | x3 | x3 | x3 | x3 | x3 | x3 | x3 | %36
 e/c/B/^A/G/^^F/ | x3 | x3 | x3 | x3 | x3 | x3 | e/c/B/^A/G/^^F/ | x3 | x3 | x3 | x3 | x3 :: x3 | %50
 x3 | x3 | x3 | x3 | x3 ||[K:Ab] x2 B/c/ | Td/c/4B/4 c/=A/B/c/ | Td/c/4B/4 c/=A/B/c/ | %58
 Td/c/4B/4 x2 | x3 | x3 | x3 | x3 | x3 | x3 | x3 | x3 | x3 | x3 | x3 | x3 ||[K:E] x3 | x3 | x3 | %74
 x3 | x3 | x3 | x3 | x3 | x3 | x3 | x3 | x3 | x3 | x3 | x3 | x3 | x3 | x3 | x3 | x3 | x3 | x3 | %93
 a/f/e/d/c/^B/ | x3 | x3 | x3 | x3 | x3 :| %99
V:4
 x3 | x3 | x3 | x3 | x3 | x3 | x3 | x3 | x3 | x3 | x3 | G,>G,^^F,/D,/ | E,>E,D, | G,>G,^^F,/D,/ | %14
 E,>E,D, | x3 | F,>G,^A,/F,/ | x3 | x3 | x3 | x x/[K:treble] B/^A/F/ | B>B^A/F/ | G>G^^F/D/ | %23
 G>G^^F/D/ | E>ED/B,/ | E>ED/B,/ | C3/2[K:bass] C/^B,/G,/ | C>CB,/^A,/ | x3 | x3 | x3 | %31
[K:treble] x3 | x3 | x3 | x3 |[K:bass] x3 | x3 | x3 |[K:treble] x3 | x3 | x3 | x3 |[K:bass] x3 | %43
 x3 | x3 | x3 | x3 | x3 | x3 :: x3 | x3 | x3 | G,2 G, | F,3 | F,3 ||[K:Ab] G,3 | F,3 | F,3 | %58
 F, x2 |[K:treble] F>F=E/C/ | F>F=E/C/ | D>DC/A,/ | D>DC/A,/ | B,3/2[K:bass] B,/A,/F,/ | %64
 B,>B,A,/F,/ | _G,>G,F,/D,/ | x3 | x3 | x3 | x3 | x3 ||[K:E] C>C^B,/G,/ | A,>A,G, | C>C^B,/G,/ | %74
 A,>A,G, | C>D^E/C/ |[K:treble] F2 C | F>F^E/C/ | F2 C | x3 | x3 | x3 | x3 | ^B,G,A, | %84
[K:bass] x G,2 | x3 | x3 | x3 | x3 | x3 | x3 | x3 | x3 | x3 | x3 | x3 | x3 | F,, G,,2 | x3 :| %99

